48x48/apps/im.kaidan.kaidan.svg

<svg xmlns="http://www.w3.org/2000/svg" width="48" height="48" version="1.1">
 <path style="opacity:0.2" d="M 24,5 C 12.954361,5 4,13.954185 4,25 c 0,2.540432 0.4916423,4.961576 1.3554688,7.197266 l -0.050781,-0.02734 c 0.5147136,1.408811 0.9292721,2.81718 1.1074219,3.988281 0.1779735,1.170925 -0.2810862,2.103488 -0.4921875,2.890625 -0.2109251,0.787136 -0.4745343,1.429666 -0.6972657,2.054688 -0.2225549,0.625198 -0.4043554,1.233658 0.099609,1.791015 0.5039646,0.557533 1.6936506,1.062082 3.8945313,1.449219 C 11.417679,44.730711 14.632008,45 17.433594,45 H 24 C 35.045639,45 44,36.045639 44,25 44,13.954185 35.045639,5 24,5 Z"/>
 <path style="fill:#2fab74" d="M 27.954803,42.793656 C 26.975772,43.015683 25.703493,44 24,44 22,44 20,44 17.43304,44 14.631454,44 11.418415,43.731454 9.2175333,43.344493 7.0166526,42.957356 5.827049,42.452158 5.3230844,41.894625 4.8191196,41.337268 5.0009698,40.727753 5.2235248,40.102555 5.4462561,39.477533 5.7096922,38.836651 5.9206173,38.049515 6.1317186,37.262378 6.5905204,36.32881 6.4125469,35.157885 6.2343971,33.986784 5.8194719,32.57815 5.3047583,31.169339"/>
 <path style="fill:#2fab74" d="M 44,24 C 44,35.045639 35.045639,44 24,44 12.954361,44 4.0000001,35.045639 4.0000001,24 4.0000001,12.954185 12.954361,4.0000001 24,4.0000001 35.045639,4.0000001 44,12.954185 44,24 Z"/>
 <path style="opacity:0.2" d="M 15.289062,15 C 14.021227,15 13,15.892 13,17 c 0,1.108 1.021227,2 2.289062,2 H 32.710938 C 33.978773,19 35,18.108 35,17 35,15.892 33.978773,15 32.710938,15 Z m -2.996093,8 C 11.02233,23 10,23.892 10,25 c 0,1.108 1.02233,2 2.292969,2 H 35.707031 C 36.97767,27 38,26.108 38,25 38,23.892 36.97767,23 35.707031,23 Z M 15,31 c -1.108,0 -2,0.892 -2,2 0,1.108 0.892,2 2,2 1.108,0 2,-0.892 2,-2 0,-1.108 -0.892,-2 -2,-2 z m 6.306641,0 C 20.028869,31 19,31.892 19,33 c 0,1.108 1.028869,2 2.306641,2 H 32.693359 C 33.971131,35 35,34.108 35,33 35,31.892 33.971131,31 32.693359,31 Z"/>
 <rect style="fill:#c1ede5" width="22" height="4" x="13" y="14" rx="2.289" ry="2"/>
 <rect style="fill:#c1ede5" width="28" height="4" x="10" y="22" rx="2.294" ry="2"/>
 <rect style="fill:#c1ede5" width="16" height="4" x="19" y="30" rx="2.306" ry="2"/>
 <rect style="fill:#c1ede5" width="4" height="4" x="13" y="30" rx="2" ry="2"/>
 <path style="fill:#f4f4f7;opacity:0.2" d="M 24 4 C 12.954361 4 4 12.954185 4 24 C 4 24.167671 4.0076161 24.333317 4.0117188 24.5 C 4.2778856 13.685953 13.122032 5 24 5 C 34.877968 5 43.722114 13.685953 43.988281 24.5 C 43.992384 24.333317 44 24.167671 44 24 C 44 12.954185 35.045639 4 24 4 z"/>
</svg>

<svg xmlns="http://www.w3.org/2000/svg" width="48" height="48"><path style="opacity:.2" d="M24 5C12.954 5 4 13.954 4 25c0 2.54.492 4.962 1.355 7.197l-.05-.027c.514 1.409.929 2.817 1.107 3.988.178 1.171-.281 2.104-.492 2.89-.211.788-.475 1.43-.697 2.056-.223.625-.405 1.233.1 1.79.503.558 1.693 1.063 3.894 1.45 2.2.387 5.415.656 8.217.656H24c11.046 0 20-8.954 20-20S35.046 5 24 5z"/><path style="fill:#2fab74" d="M27.955 42.794C26.975 43.016 25.703 44 24 44h-6.567c-2.802 0-6.015-.269-8.215-.656-2.201-.387-3.391-.892-3.895-1.45-.504-.557-.322-1.166-.1-1.791.223-.625.487-1.266.698-2.053.21-.788.67-1.721.492-2.892-.179-1.171-.594-2.58-1.108-3.989"/><path style="fill:#2fab74" d="M44 24c0 11.046-8.954 20-20 20S4 35.046 4 24 12.954 4 24 4s20 8.954 20 20z"/><path style="opacity:.2" d="M15.29 15c-1.269 0-2.29.892-2.29 2s1.021 2 2.29 2h17.42c1.269 0 2.29-.892 2.29-2s-1.021-2-2.29-2zm-2.997 8c-1.27 0-2.293.892-2.293 2s1.022 2 2.293 2h23.414c1.27 0 2.293-.892 2.293-2s-1.022-2-2.293-2zM15 31c-1.108 0-2 .892-2 2s.892 2 2 2 2-.892 2-2-.892-2-2-2zm6.307 0C20.029 31 19 31.892 19 33s1.029 2 2.307 2h11.386C33.971 35 35 34.108 35 33s-1.029-2-2.307-2z"/><rect style="fill:#c1ede5" width="22" height="4" x="13" y="14" rx="2.289" ry="2"/><rect style="fill:#c1ede5" width="28" height="4" x="10" y="22" rx="2.294" ry="2"/><rect style="fill:#c1ede5" width="16" height="4" x="19" y="30" rx="2.306" ry="2"/><rect style="fill:#c1ede5" width="4" height="4" x="13" y="30" rx="2" ry="2"/><path style="fill:#f4f4f7;opacity:.2" d="M24 4C12.954 4 4 12.954 4 24c0 .168.008.333.012.5C4.278 13.686 13.122 5 24 5s19.722 8.686 19.988 19.5c.004-.167.012-.332.012-.5 0-11.046-8.954-20-20-20z"/></svg>
